X:1
T:Johnny Leary's
R:slide
M:12/8
L:1/8
K:A
|:A2f ecA G2F F2A|GAB EFG A2c EFG|
|A2f ecA G2F F2A|1 GAB EFG A3 A2E:|2 GAB EFG A3 A2c|]
|:e2c a2c e2d B2c|dcB fgf e2c A2c|
|e2c a2c e2d B2a|1 gfe dcB A3 A2c:|2 gfe dcB A3 a2a|]
|:gfe d2f f2e c2e|gfe dcB A2B c2e|
|afe d2f f2e c2e|1 gfe dcB A3 a2a:|2 gfe dcB A3 EFG|]